src/topics/icons/component.svg

<svg height="257" preserveAspectRatio="xMidYMid" viewBox="0 0 256 257" width="256" xmlns="http://www.w3.org/2000/svg"><path d="m214.570715 131.720728c0 17.482509-5.186706 33.735437-14.018462 47.404374l29.509925 26.239366c16.159305-21.42091 25.858633-47.991077 25.858633-76.895574 0-28.7422167-9.593222-55.1813115-25.596489-76.5460475l-32.262437 28.7796663c10.342205 14.3742293 16.50883 31.9566022 16.50883 51.0182152" fill="#7a797a"/><path d="m196.102046 185.360384c-16.01575 20.578304-40.950637 33.87275-69.043736 33.87275-48.3343603 0-87.5124052-39.184287-87.5124052-87.512406 0-48.33436 39.1780449-87.512405 87.5124052-87.512405 26.526476 0 50.244267 11.8464122 66.291224 30.4898439l32.281162-28.7921494c-23.46813-27.7373318-58.48932-45.38836112-97.661123-45.38836112-70.666533 0-127.95123852 57.28470552-127.95123852 127.95123762 0 70.666533 57.28470552 127.951239 127.95123852 127.951239 39.022006 0 73.899641-17.519958 97.367771-45.063802z" fill="#343334"/><path d="m162.491441 132.625749c0 19.623351-15.909644 35.532995-35.532995 35.532995-19.629593 0-35.5329953-15.909644-35.5329953-35.532995 0-19.629592 15.9034023-35.5329947 35.5329953-35.5329947 19.623351 0 35.532995 15.9034027 35.532995 35.5329947" fill="#474547"/></svg>

<?xml version="1.0" encoding="UTF-8" standalone="no"?>
<svg width="256px" height="257px" viewBox="0 0 256 257" version="1.1" xmlns="http://www.w3.org/2000/svg" xmlns:xlink="http://www.w3.org/1999/xlink" preserveAspectRatio="xMidYMid">
	<g>
		<g>
			<path d="M214.570715,131.720728 C214.570715,149.203237 209.384009,165.456165 200.552253,179.125102 L230.062178,205.364468 C246.221483,183.943558 255.920811,157.373391 255.920811,128.468894 C255.920811,99.7266773 246.327589,73.2875825 230.324322,51.9228465 L198.061885,80.7025128 C208.40409,95.0767421 214.570715,112.659115 214.570715,131.720728" fill="#7A797A"></path>
			<path d="M196.102046,185.360384 C180.086296,205.938688 155.151409,219.233134 127.05831,219.233134 C78.7239497,219.233134 39.5459048,180.048847 39.5459048,131.720728 C39.5459048,83.386368 78.7239497,44.208323 127.05831,44.208323 C153.584786,44.208323 177.302577,56.0547352 193.349534,74.6981669 L225.630696,45.9060175 C202.162566,18.1686857 167.141376,0.517656381 127.969573,0.517656381 C57.30304,0.517656381 0.0183344762,57.8023619 0.0183344762,128.468894 C0.0183344762,199.135427 57.30304,256.420133 127.969573,256.420133 C166.991579,256.420133 201.869214,238.900175 225.337344,211.356331 L196.102046,185.360384" fill="#343334"></path>
		</g>
		<path d="M162.491441,132.625749 C162.491441,152.2491 146.581797,168.158744 126.958446,168.158744 C107.328853,168.158744 91.4254507,152.2491 91.4254507,132.625749 C91.4254507,112.996157 107.328853,97.0927543 126.958446,97.0927543 C146.581797,97.0927543 162.491441,112.996157 162.491441,132.625749" fill="#474547"></path>
	</g>
</svg>
